; generated by Slic3r 1.3.0 on 2020-03-19 at 22:45:00

; external perimeters extrusion width = 0.44mm (2.38mm^3/s)
; perimeters extrusion width = 0.56mm (3.10mm^3/s)
; infill extrusion width = 0.50mm (4.57mm^3/s)
; solid infill extrusion width = 0.56mm (5.17mm^3/s)
; top infill extrusion width = 0.56mm (5.17mm^3/s)

M107
; -- TypeA START GCODE --
G21        ;metric values
G90        ;absolute positioning
G28     ;move to endstops
G29		;allows for auto-levelling
G1 Z15.0 F12000 ;move the platform down 15mm
G1 X150 Y5 F12000 ;center
M140 S50;Prep Heat Bed
M109 S210 ;Heat hotend to temp
M190 S50 ;Heat Bed to temp
G1 X150 Y5 Z0.3 ;move the platform to purge extrusion
G92 E0 ;zero the extruded length
G1 F200 X250 E30 ;extrude 30mm of feed stock
G92 E0 ;zero the extruded length again
G1 X150 Y150  Z25 F12000 ;recenter and begin
G1 F12000

; Filament gcode

G21 ; set units to millimeters
G90 ; use absolute coordinates
M82 ; use absolute distances for extrusion
G92 E0
G1 Z0.400 F6000.000
; LAYER: 0 
; LAYERZ: 0.4
G1 E-0.50000 F2400.00000
G92 E0
G1 X227.439 Y79.268 F6000.000
G1 E0.50000 F2400.00000
G1 F900
G1 X227.768 Y78.939 E0.57031
G1 X242.232 Y78.939 E2.75929
G1 X242.561 Y79.268 E2.82961
G1 X242.561 Y114.732 E8.19659
G1 X242.232 Y115.061 E8.26691
G1 X227.768 Y115.061 E10.45589
G1 X227.439 Y114.732 E10.52620
G1 X227.439 Y79.328 E15.88411
G1 X222.561 Y79.268 F6000.000
G1 F900
G1 X222.561 Y149.732 E26.54777
G1 X222.232 Y150.061 E26.61809
G1 X200.268 Y150.061 E29.94207
G1 X199.939 Y149.732 E30.01238
G1 X199.939 Y79.268 E40.67605
G1 X200.268 Y78.939 E40.74636
G1 X222.232 Y78.939 E44.07034
G1 X222.518 Y79.225 E44.13157
G1 E43.63157 F2400.00000
G92 E0
G1 X195.061 Y79.268 F6000.000
G1 E0.50000 F2400.00000
G1 F900
G1 X195.061 Y149.732 E11.16366
G1 X194.732 Y150.061 E11.23398
G1 X172.768 Y150.061 E14.55796
G1 X172.439 Y149.732 E14.62827
G1 X172.439 Y79.268 E25.29194
G1 X172.768 Y78.939 E25.36225
G1 X194.732 Y78.939 E28.68623
G1 X195.018 Y79.225 E28.74747
G1 E28.24747 F2400.00000
G92 E0
G1 X167.561 Y79.268 F6000.000
G1 E0.50000 F2400.00000
G1 F900
G1 X167.561 Y149.732 E11.16366
G1 X167.232 Y150.061 E11.23398
G1 X145.268 Y150.061 E14.55796
G1 X144.939 Y149.732 E14.62827
G1 X144.939 Y79.268 E25.29194
G1 X145.268 Y78.939 E25.36225
G1 X167.232 Y78.939 E28.68623
G1 X167.518 Y79.225 E28.74747
G1 E28.24747 F2400.00000
G92 E0
G1 X140.061 Y79.268 F6000.000
G1 E0.50000 F2400.00000
G1 F900
G1 X140.061 Y149.732 E11.16366
G1 X139.732 Y150.061 E11.23398
G1 X117.768 Y150.061 E14.55796
G1 X117.439 Y149.732 E14.62827
G1 X117.439 Y79.268 E25.29194
G1 X117.768 Y78.939 E25.36225
G1 X139.732 Y78.939 E28.68623
G1 X140.018 Y79.225 E28.74747
G1 E28.24747 F2400.00000
G92 E0
G1 X105.061 Y79.268 F6000.000
G1 E0.50000 F2400.00000
G1 F900
G1 X105.061 Y114.732 E5.86699
G1 X104.732 Y115.061 E5.93730
G1 X90.268 Y115.061 E8.12628
G1 X89.939 Y114.732 E8.19659
G1 X89.939 Y79.268 E13.56358
G1 X90.268 Y78.939 E13.63389
G1 X104.732 Y78.939 E15.82288
G1 X105.018 Y79.225 E15.88411
G1 E15.38411 F2400.00000
G92 E0
G1 X77.232 Y154.939 F6000.000
G1 E0.50000 F2400.00000
G1 F900
G1 X77.561 Y155.268 E0.57031
G1 X77.561 Y190.732 E5.93730
G1 X77.232 Y191.061 E6.00761
G1 X62.768 Y191.061 E8.19659
G1 X62.439 Y190.732 E8.26691
G1 X62.439 Y155.268 E13.63389
G1 X62.768 Y154.939 E13.70421
G1 X77.172 Y154.939 E15.88411
G1 E15.38411 F2400.00000
G92 E0
G1 X89.939 Y155.268 F6000.000
G1 E0.50000 F2400.00000
G1 F900
G1 X90.268 Y154.939 E0.57031
G1 X104.732 Y154.939 E2.75929
G1 X105.061 Y155.268 E2.82961
G1 X105.061 Y190.732 E8.19659
G1 X104.732 Y191.061 E8.26691
G1 X90.268 Y191.061 E10.45589
G1 X89.939 Y190.732 E10.52620
G1 X89.939 Y155.328 E15.88411
G1 E15.38411 F2400.00000
G92 E0
G1 X117.439 Y155.268 F6000.000
G1 E0.50000 F2400.00000
G1 F900
G1 X117.768 Y154.939 E0.57031
G1 X139.732 Y154.939 E3.89430
G1 X140.061 Y155.268 E3.96461
G1 X140.061 Y225.732 E14.62827
G1 X139.732 Y226.061 E14.69858
G1 X117.768 Y226.061 E18.02257
G1 X117.439 Y225.732 E18.09288
G1 X117.439 Y155.328 E28.74747
G1 E28.24747 F2400.00000
G92 E0
G1 X144.939 Y155.268 F6000.000
G1 E0.50000 F2400.00000
G1 F900
G1 X145.268 Y154.939 E0.57031
G1 X167.232 Y154.939 E3.89430
G1 X167.561 Y155.268 E3.96461
G1 X167.561 Y225.732 E14.62827
G1 X167.232 Y226.061 E14.69858
G1 X145.268 Y226.061 E18.02257
G1 X144.939 Y225.732 E18.09288
G1 X144.939 Y155.328 E28.74747
G1 E28.24747 F2400.00000
G92 E0
G1 X172.439 Y155.268 F6000.000
G1 E0.50000 F2400.00000
G1 F900
G1 X172.768 Y154.939 E0.57031
G1 X194.732 Y154.939 E3.89430
G1 X195.061 Y155.268 E3.96461
G1 X195.061 Y225.732 E14.62827
G1 X194.732 Y226.061 E14.69858
G1 X172.768 Y226.061 E18.02257
G1 X172.439 Y225.732 E18.09288
G1 X172.439 Y155.328 E28.74747
G1 E28.24747 F2400.00000
G92 E0
G1 X227.439 Y155.268 F6000.000
G1 E0.50000 F2400.00000
G1 F900
G1 X227.768 Y154.939 E0.57031
G1 X242.232 Y154.939 E2.75929
G1 X242.561 Y155.268 E2.82961
G1 X242.561 Y190.732 E8.19659
G1 X242.232 Y191.061 E8.26691
G1 X227.768 Y191.061 E10.45589
G1 X227.439 Y190.732 E10.52620
G1 X227.439 Y155.328 E15.88411
G1 X222.561 Y155.268 F6000.000
G1 F900
G1 X222.561 Y225.732 E26.54777
G1 X222.232 Y226.061 E26.61809
G1 X200.268 Y226.061 E29.94207
G1 X199.939 Y225.732 E30.01238
G1 X199.939 Y155.268 E40.67605
G1 X200.268 Y154.939 E40.74636
G1 X222.232 Y154.939 E44.07034
G1 X222.518 Y155.225 E44.13157
G1 E43.63157 F2400.00000
G92 E0
G1 X76.600 Y190.100 F6000.000
G1 E0.50000 F2400.00000
G1 F540
G1 X63.400 Y190.100 E1.92661
G1 X63.400 Y155.900 E5.62282
G1 X76.600 Y155.900 E7.04942
G1 X76.600 Y190.040 E10.73915
G1 X76.232 Y189.944 F6000.000
G1 X75.886 Y189.386 F6000.000
G1 F540
G1 X64.114 Y189.386 E12.01139
G1 X64.114 Y156.614 E15.55323
G1 X75.886 Y156.614 E16.82547
G1 X75.886 Y189.326 E20.36083
G1 X75.096 Y188.747 F6000.000
G1 F900
G1 X75.247 Y188.596 E20.38416
G1 X75.247 Y187.579 E20.49478
G1 X74.079 Y188.747 E20.67456
G1 X73.062 Y188.747 E20.78518
G1 X75.247 Y186.562 E21.12140
G1 X75.247 Y185.546 E21.23203
G1 X72.046 Y188.747 E21.72469
G1 X71.029 Y188.747 E21.83531
G1 X75.247 Y184.529 E22.48442
G1 X75.247 Y183.512 E22.59505
G1 X70.012 Y188.747 E23.40060
G1 X68.995 Y188.747 E23.51122
G1 X75.247 Y182.495 E24.47322
G1 X75.247 Y181.479 E24.58384
G1 X67.979 Y188.747 E25.70228
G1 X66.962 Y188.747 E25.81290
G1 X75.247 Y180.462 E27.08779
G1 X75.247 Y179.445 E27.19841
G1 X65.945 Y188.747 E28.62974
G1 X64.928 Y188.747 E28.74036
G1 X75.247 Y178.428 E30.32814
G1 X75.247 Y177.412 E30.43876
G1 X64.753 Y187.907 E32.05358
G1 X64.753 Y186.890 E32.16421
G1 X75.247 Y176.395 E33.77903
G1 X75.247 Y175.378 E33.88966
G1 X64.753 Y185.873 E35.50448
G1 X64.753 Y184.856 E35.61510
G1 X75.247 Y174.361 E37.22993
G1 X75.247 Y173.345 E37.34055
G1 X64.753 Y183.840 E38.95538
G1 X64.753 Y182.823 E39.06600
G1 X75.247 Y172.328 E40.68083
G1 X75.247 Y171.311 E40.79145
G1 X64.753 Y181.806 E42.40627
G1 X64.753 Y180.789 E42.51690
G1 X75.247 Y170.294 E44.13172
G1 X75.247 Y169.278 E44.24235
G1 X64.753 Y179.773 E45.85717
G1 X64.753 Y178.756 E45.96779
G1 X75.247 Y168.261 E47.58262
G1 X75.247 Y167.244 E47.69324
G1 X64.753 Y177.739 E49.30807
G1 X64.753 Y176.722 E49.41869
G1 X75.247 Y166.227 E51.03352
G1 X75.247 Y165.211 E51.14414
G1 X64.753 Y175.706 E52.75896
G1 X64.753 Y174.689 E52.86959
G1 X75.247 Y164.194 E54.48441
G1 X75.247 Y163.177 E54.59503
G1 X64.753 Y173.672 E56.20986
G1 X64.753 Y172.655 E56.32048
G1 X75.247 Y162.160 E57.93531
G1 X75.247 Y161.144 E58.04593
G1 X64.753 Y171.639 E59.66076
G1 X64.753 Y170.622 E59.77138
G1 X75.247 Y160.127 E61.38620
G1 X75.247 Y159.110 E61.49683
G1 X64.753 Y169.605 E63.11165
G1 X64.753 Y168.588 E63.22228
G1 X75.247 Y158.093 E64.83710
G1 X75.247 Y157.253 E64.92860
G1 X75.072 Y157.253 E64.94772
G1 X64.753 Y167.572 E66.53550
G1 X64.753 Y166.555 E66.64612
G1 X74.055 Y157.253 E68.07745
G1 X73.038 Y157.253 E68.18807
G1 X64.753 Y165.538 E69.46296
G1 X64.753 Y164.521 E69.57358
G1 X72.021 Y157.253 E70.69202
G1 X71.005 Y157.253 E70.80264
G1 X64.753 Y163.505 E71.76464
G1 X64.753 Y162.488 E71.87526
G1 X69.988 Y157.253 E72.68082
G1 X68.971 Y157.253 E72.79144
G1 X64.753 Y161.471 E73.44055
G1 X64.753 Y160.454 E73.55117
G1 X67.954 Y157.253 E74.04384
G1 X66.938 Y157.253 E74.15446
G1 X64.753 Y159.438 E74.49068
G1 X64.753 Y158.421 E74.60130
G1 X65.921 Y157.253 E74.78108
G1 X64.904 Y157.253 E74.89170
G1 X64.753 Y157.404 E74.91501
G1 E74.41501 F2400.00000
G92 E0
G1 X104.100 Y190.100 F6000.000
G1 E0.50000 F2400.00000
G1 F540
G1 X90.900 Y190.100 E1.92661
G1 X90.900 Y155.900 E5.62282
G1 X104.100 Y155.900 E7.04942
G1 X104.100 Y190.040 E10.73915
G1 X103.732 Y189.944 F6000.000
G1 X103.386 Y189.386 F6000.000
G1 F540
G1 X91.614 Y189.386 E12.01139
G1 X91.614 Y156.614 E15.55323
G1 X103.386 Y156.614 E16.82547
G1 X103.386 Y189.326 E20.36083
G1 X102.596 Y188.747 F6000.000
G1 F900
G1 X102.747 Y188.596 E20.38416
G1 X102.747 Y187.579 E20.49478
G1 X101.579 Y188.747 E20.67456
G1 X100.562 Y188.747 E20.78518
G1 X102.747 Y186.562 E21.12140
G1 X102.747 Y185.546 E21.23203
G1 X99.546 Y188.747 E21.72469
G1 X98.529 Y188.747 E21.83531
G1 X102.747 Y184.529 E22.48442
G1 X102.747 Y183.512 E22.59505
G1 X97.512 Y188.747 E23.40060
G1 X96.495 Y188.747 E23.51122
G1 X102.747 Y182.495 E24.47322
G1 X102.747 Y181.479 E24.58384
G1 X95.479 Y188.747 E25.70228
G1 X94.462 Y188.747 E25.81290
G1 X102.747 Y180.462 E27.08779
G1 X102.747 Y179.445 E27.19841
G1 X93.445 Y188.747 E28.62974
G1 X92.428 Y188.747 E28.74036
G1 X102.747 Y178.428 E30.32814
G1 X102.747 Y177.412 E30.43876
G1 X92.253 Y187.907 E32.05358
G1 X92.253 Y186.890 E32.16421
G1 X102.747 Y176.395 E33.77903
G1 X102.747 Y175.378 E33.88966
G1 X92.253 Y185.873 E35.50448
G1 X92.253 Y184.856 E35.61510
G1 X102.747 Y174.361 E37.22993
G1 X102.747 Y173.345 E37.34055
G1 X92.253 Y183.840 E38.95538
G1 X92.253 Y182.823 E39.06600
G1 X102.747 Y172.328 E40.68083
G1 X102.747 Y171.311 E40.79145
G1 X92.253 Y181.806 E42.40627
G1 X92.253 Y180.789 E42.51690
G1 X102.747 Y170.294 E44.13172
G1 X102.747 Y169.278 E44.24235
G1 X92.253 Y179.773 E45.85717
G1 X92.253 Y178.756 E45.96779
G1 X102.747 Y168.261 E47.58262
G1 X102.747 Y167.244 E47.69324
G1 X92.253 Y177.739 E49.30807
G1 X92.253 Y176.722 E49.41869
G1 X102.747 Y166.227 E51.03352
G1 X102.747 Y165.211 E51.14414
G1 X92.253 Y175.706 E52.75896
G1 X92.253 Y174.689 E52.86959
G1 X102.747 Y164.194 E54.48441
G1 X102.747 Y163.177 E54.59503
G1 X92.253 Y173.672 E56.20986
G1 X92.253 Y172.655 E56.32048
G1 X102.747 Y162.160 E57.93531
G1 X102.747 Y161.144 E58.04593
G1 X92.253 Y171.639 E59.66076
G1 X92.253 Y170.622 E59.77138
G1 X102.747 Y160.127 E61.38620
G1 X102.747 Y159.110 E61.49683
G1 X92.253 Y169.605 E63.11165
G1 X92.253 Y168.588 E63.22228
G1 X102.747 Y158.093 E64.83710
G1 X102.747 Y157.253 E64.92860
G1 X102.572 Y157.253 E64.94772
G1 X92.253 Y167.572 E66.53550
G1 X92.253 Y166.555 E66.64612
G1 X101.555 Y157.253 E68.07745
G1 X100.538 Y157.253 E68.18807
G1 X92.253 Y165.538 E69.46296
G1 X92.253 Y164.521 E69.57358
G1 X99.521 Y157.253 E70.69202
G1 X98.505 Y157.253 E70.80264
G1 X92.253 Y163.505 E71.76464
G1 X92.253 Y162.488 E71.87526
G1 X97.488 Y157.253 E72.68082
G1 X96.471 Y157.253 E72.79144
G1 X92.253 Y161.471 E73.44055
G1 X92.253 Y160.454 E73.55117
G1 X95.454 Y157.253 E74.04384
G1 X94.438 Y157.253 E74.15446
G1 X92.253 Y159.438 E74.49068
G1 X92.253 Y158.421 E74.60130
G1 X93.421 Y157.253 E74.78108
G1 X92.404 Y157.253 E74.89170
G1 X92.253 Y157.404 E74.91501
G1 E74.41501 F2400.00000
G92 E0
G1 X104.100 Y114.100 F6000.000
G1 E0.50000 F2400.00000
G1 F540
G1 X90.900 Y114.100 E1.92661
G1 X90.900 Y79.900 E5.62282
G1 X104.100 Y79.900 E7.04942
G1 X104.100 Y114.040 E10.73915
G1 X103.732 Y113.944 F6000.000
G1 X103.386 Y113.386 F6000.000
G1 F540
G1 X91.614 Y113.386 E12.01139
G1 X91.614 Y80.614 E15.55323
G1 X103.386 Y80.614 E16.82547
G1 X103.386 Y113.326 E20.36083
G1 X102.596 Y112.747 F6000.000
G1 F900
G1 X102.747 Y112.596 E20.38416
G1 X102.747 Y111.579 E20.49478
G1 X101.579 Y112.747 E20.67456
G1 X100.562 Y112.747 E20.78518
G1 X102.747 Y110.562 E21.12140
G1 X102.747 Y109.546 E21.23203
G1 X99.546 Y112.747 E21.72469
G1 X98.529 Y112.747 E21.83531
G1 X102.747 Y108.529 E22.48442
G1 X102.747 Y107.512 E22.59505
G1 X97.512 Y112.747 E23.40060
G1 X96.495 Y112.747 E23.51122
G1 X102.747 Y106.495 E24.47322
G1 X102.747 Y105.479 E24.58384
G1 X95.479 Y112.747 E25.70228
G1 X94.462 Y112.747 E25.81290
G1 X102.747 Y104.462 E27.08779
G1 X102.747 Y103.445 E27.19841
G1 X93.445 Y112.747 E28.62974
G1 X92.428 Y112.747 E28.74036
G1 X102.747 Y102.428 E30.32814
G1 X102.747 Y101.412 E30.43876
G1 X92.253 Y111.907 E32.05358
G1 X92.253 Y110.890 E32.16421
G1 X102.747 Y100.395 E33.77903
G1 X102.747 Y99.378 E33.88966
G1 X92.253 Y109.873 E35.50448
G1 X92.253 Y108.856 E35.61510
G1 X102.747 Y98.361 E37.22993
G1 X102.747 Y97.345 E37.34055
G1 X92.253 Y107.840 E38.95538
G1 X92.253 Y106.823 E39.06600
G1 X102.747 Y96.328 E40.68083
G1 X102.747 Y95.311 E40.79145
G1 X92.253 Y105.806 E42.40627
G1 X92.253 Y104.789 E42.51690
G1 X102.747 Y94.294 E44.13172
G1 X102.747 Y93.278 E44.24235
G1 X92.253 Y103.773 E45.85717
G1 X92.253 Y102.756 E45.96779
G1 X102.747 Y92.261 E47.58262
G1 X102.747 Y91.244 E47.69324
G1 X92.253 Y101.739 E49.30807
G1 X92.253 Y100.722 E49.41869
G1 X102.747 Y90.227 E51.03352
G1 X102.747 Y89.211 E51.14414
G1 X92.253 Y99.706 E52.75896
G1 X92.253 Y98.689 E52.86959
G1 X102.747 Y88.194 E54.48441
G1 X102.747 Y87.177 E54.59503
G1 X92.253 Y97.672 E56.20986
G1 X92.253 Y96.655 E56.32048
G1 X102.747 Y86.160 E57.93531
G1 X102.747 Y85.144 E58.04593
G1 X92.253 Y95.639 E59.66076
G1 X92.253 Y94.622 E59.77138
G1 X102.747 Y84.127 E61.38620
G1 X102.747 Y83.110 E61.49683
G1 X92.253 Y93.605 E63.11165
G1 X92.253 Y92.588 E63.22228
G1 X102.747 Y82.093 E64.83710
G1 X102.747 Y81.253 E64.92860
G1 X102.572 Y81.253 E64.94772
G1 X92.253 Y91.572 E66.53550
G1 X92.253 Y90.555 E66.64612
G1 X101.555 Y81.253 E68.07745
G1 X100.538 Y81.253 E68.18807
G1 X92.253 Y89.538 E69.46296
G1 X92.253 Y88.521 E69.57358
G1 X99.521 Y81.253 E70.69202
G1 X98.505 Y81.253 E70.80264
G1 X92.253 Y87.505 E71.76464
G1 X92.253 Y86.488 E71.87526
G1 X97.488 Y81.253 E72.68082
G1 X96.471 Y81.253 E72.79144
G1 X92.253 Y85.471 E73.44055
G1 X92.253 Y84.454 E73.55117
G1 X95.454 Y81.253 E74.04384
G1 X94.438 Y81.253 E74.15446
G1 X92.253 Y83.438 E74.49068
G1 X92.253 Y82.421 E74.60130
G1 X93.421 Y81.253 E74.78108
G1 X92.404 Y81.253 E74.89170
G1 X92.253 Y81.404 E74.91501
G1 E74.41501 F2400.00000
G92 E0
G1 X241.600 Y114.100 F6000.000
G1 E0.50000 F2400.00000
G1 F540
G1 X228.400 Y114.100 E1.92661
G1 X228.400 Y79.900 E5.62282
G1 X241.600 Y79.900 E7.04942
G1 X241.600 Y114.040 E10.73915
G1 X241.232 Y113.944 F6000.000
G1 X240.886 Y113.386 F6000.000
G1 F540
G1 X229.114 Y113.386 E12.01139
G1 X229.114 Y80.614 E15.55323
G1 X240.886 Y80.614 E16.82547
G1 X240.886 Y113.326 E20.36083
G1 X240.096 Y112.747 F6000.000
G1 F900
G1 X240.247 Y112.596 E20.38416
G1 X240.247 Y111.579 E20.49478
G1 X239.079 Y112.747 E20.67456
G1 X238.062 Y112.747 E20.78518
G1 X240.247 Y110.562 E21.12140
G1 X240.247 Y109.546 E21.23203
G1 X237.046 Y112.747 E21.72469
G1 X236.029 Y112.747 E21.83531
G1 X240.247 Y108.529 E22.48442
G1 X240.247 Y107.512 E22.59505
G1 X235.012 Y112.747 E23.40060
G1 X233.995 Y112.747 E23.51122
G1 X240.247 Y106.495 E24.47322
G1 X240.247 Y105.479 E24.58384
G1 X232.979 Y112.747 E25.70228
G1 X231.962 Y112.747 E25.81290
G1 X240.247 Y104.462 E27.08779
G1 X240.247 Y103.445 E27.19841
G1 X230.945 Y112.747 E28.62974
G1 X229.928 Y112.747 E28.74036
G1 X240.247 Y102.428 E30.32814
G1 X240.247 Y101.412 E30.43876
G1 X229.753 Y111.907 E32.05358
G1 X229.753 Y110.890 E32.16421
G1 X240.247 Y100.395 E33.77903
G1 X240.247 Y99.378 E33.88966
G1 X229.753 Y109.873 E35.50448
G1 X229.753 Y108.856 E35.61510
G1 X240.247 Y98.361 E37.22993
G1 X240.247 Y97.345 E37.34055
G1 X229.753 Y107.840 E38.95538
G1 X229.753 Y106.823 E39.06600
G1 X240.247 Y96.328 E40.68083
G1 X240.247 Y95.311 E40.79145
G1 X229.753 Y105.806 E42.40627
G1 X229.753 Y104.789 E42.51690
G1 X240.247 Y94.294 E44.13172
G1 X240.247 Y93.278 E44.24235
G1 X229.753 Y103.773 E45.85717
G1 X229.753 Y102.756 E45.96779
G1 X240.247 Y92.261 E47.58262
G1 X240.247 Y91.244 E47.69324
G1 X229.753 Y101.739 E49.30807
G1 X229.753 Y100.722 E49.41869
