; generated by Slic3r 1.3.0 on 2020-03-19 at 22:53:23

; external perimeters extrusion width = 0.44mm (2.38mm^3/s)
; perimeters extrusion width = 0.56mm (3.10mm^3/s)
; infill extrusion width = 0.50mm (4.57mm^3/s)
; solid infill extrusion width = 0.56mm (5.17mm^3/s)
; top infill extrusion width = 0.56mm (5.17mm^3/s)

M107
; -- TypeA START GCODE --
G21        ;metric values
G90        ;absolute positioning
G28     ;move to endstops
G29		;allows for auto-levelling
G1 Z15.0 F12000 ;move the platform down 15mm
G1 X150 Y5 F12000 ;center
M140 S50;Prep Heat Bed
M109 S210 ;Heat hotend to temp
M190 S50 ;Heat Bed to temp
G1 X150 Y5 Z0.3 ;move the platform to purge extrusion
G92 E0 ;zero the extruded length
G1 F200 X250 E30 ;extrude 30mm of feed stock
G92 E0 ;zero the extruded length again
G1 X150 Y150  Z25 F12000 ;recenter and begin
G1 F12000

; Filament gcode

G21 ; set units to millimeters
G90 ; use absolute coordinates
M82 ; use absolute distances for extrusion
G92 E0
G1 Z0.400 F6000.000
; LAYER: 0 
; LAYERZ: 0.4
G1 E-0.50000 F2400.00000
G92 E0
G1 X99.801 Y201.632 F6000.000
G1 E0.50000 F2400.00000
G1 F900
G1 X101.678 Y200.854 E0.80741
G1 X103.763 Y200.570 E1.12586
G1 X105.921 Y200.854 E1.45534
G1 X107.862 Y201.668 E1.77380
G1 X109.474 Y202.905 E2.08123
G1 X110.799 Y204.632 E2.41071
G1 X111.595 Y206.580 E2.72916
G1 X111.861 Y208.594 E3.03659
G1 X111.576 Y210.753 E3.36607
G1 X110.799 Y212.630 E3.67350
G1 X109.526 Y214.305 E3.99194
G1 X107.798 Y215.630 E4.32141
G1 X105.922 Y216.408 E4.62885
G1 X103.836 Y216.692 E4.94730
G1 X101.678 Y216.408 E5.27679
G1 X99.737 Y215.593 E5.59523
G1 X98.126 Y214.357 E5.90266
G1 X96.800 Y212.629 E6.23214
G1 X96.023 Y210.753 E6.53957
G1 X95.739 Y208.668 E6.85803
G1 X96.023 Y206.509 E7.18750
G1 X96.837 Y204.569 E7.50595
G1 X98.074 Y202.957 E7.81338
G1 X99.749 Y201.662 E8.13386
G1 E7.63386 F2400.00000
G92 E0
G1 X103.468 Y175.566 F6000.000
G1 E0.50000 F2400.00000
G1 F900
G1 X101.456 Y174.733 E0.82948
G1 X99.845 Y173.496 E1.13690
G1 X98.556 Y171.833 E1.45536
G1 X97.723 Y169.821 E1.78484
G1 X97.458 Y167.807 E2.09227
G1 X97.723 Y165.720 E2.41071
G1 X98.556 Y163.708 E2.74019
G1 X99.793 Y162.097 E3.04763
G1 X101.456 Y160.808 E3.36607
G1 X103.468 Y159.975 E3.69556
G1 X105.555 Y159.710 E4.01400
G1 X107.569 Y159.975 E4.32143
G1 X109.581 Y160.808 E4.65091
G1 X111.192 Y162.045 E4.95833
G1 X112.481 Y163.708 E5.27679
G1 X113.314 Y165.720 E5.60627
G1 X113.579 Y167.734 E5.91369
G1 X113.314 Y169.821 E6.23214
G1 X112.481 Y171.833 E6.56163
G1 X111.244 Y173.444 E6.86904
G1 X109.581 Y174.733 E7.18750
G1 X107.569 Y175.566 E7.51699
G1 X105.555 Y175.831 E7.82441
G1 X103.527 Y175.574 E8.13378
G1 E7.63378 F2400.00000
G92 E0
G1 X105.322 Y132.685 F6000.000
G1 E0.50000 F2400.00000
G1 F900
G1 X103.308 Y132.420 E0.80742
G1 X101.360 Y131.624 E1.12587
G1 X99.633 Y130.298 E1.45536
G1 X98.396 Y128.687 E1.76278
G1 X97.582 Y126.746 E2.08124
G1 X97.298 Y124.588 E2.41072
G1 X97.563 Y122.574 E2.71814
G1 X98.360 Y120.626 E3.03658
G1 X99.685 Y118.899 E3.36607
G1 X101.297 Y117.662 E3.67350
G1 X103.237 Y116.848 E3.99195
G1 X105.396 Y116.564 E4.32142
G1 X107.481 Y116.848 E4.63988
G1 X109.358 Y117.625 E4.94731
G1 X111.085 Y118.951 E5.27679
G1 X112.322 Y120.562 E5.58421
G1 X113.136 Y122.503 E5.90266
G1 X113.420 Y124.661 E6.23215
G1 X113.136 Y126.746 E6.55060
G1 X112.358 Y128.623 E6.85803
G1 X111.033 Y130.350 E7.18751
G1 X109.358 Y131.624 E7.50595
G1 X107.481 Y132.401 E7.81338
G1 X105.382 Y132.685 E8.13386
G1 E7.63386 F2400.00000
G92 E0
G1 X107.961 Y94.593 F6000.000
G1 E0.50000 F2400.00000
G1 F900
G1 X105.947 Y94.328 E0.80742
G1 X103.999 Y93.531 E1.12587
G1 X102.272 Y92.206 E1.45536
G1 X101.035 Y90.594 E1.76278
G1 X100.221 Y88.654 E2.08124
G1 X99.937 Y86.495 E2.41072
G1 X100.202 Y84.481 E2.71814
G1 X100.999 Y82.533 E3.03658
G1 X102.324 Y80.806 E3.36607
G1 X103.936 Y79.569 E3.67350
G1 X105.876 Y78.755 E3.99195
G1 X108.035 Y78.471 E4.32142
G1 X110.120 Y78.755 E4.63988
G1 X111.997 Y79.533 E4.94731
G1 X113.724 Y80.858 E5.27679
G1 X114.961 Y82.470 E5.58421
G1 X115.775 Y84.410 E5.90266
G1 X116.059 Y86.569 E6.23215
G1 X115.775 Y88.654 E6.55060
G1 X114.997 Y90.531 E6.85803
G1 X113.672 Y92.258 E7.18751
G1 X111.997 Y93.531 E7.50595
G1 X110.120 Y94.309 E7.81338
G1 X108.021 Y94.593 E8.13386
G1 E7.63386 F2400.00000
G92 E0
G1 X125.368 Y94.593 F6000.000
G1 E0.50000 F2400.00000
G1 F900
G1 X125.368 Y60.142 E5.71363
G1 X125.697 Y59.813 E5.78394
G1 X196.162 Y59.813 E16.44760
G1 X196.490 Y60.142 E16.51791
G1 X196.490 Y232.606 E42.61761
G1 X196.162 Y232.935 E42.68792
G1 X125.697 Y232.935 E53.35158
G1 X125.368 Y232.606 E53.42189
G1 X125.368 Y94.653 E74.29888
G1 E73.79888 F2400.00000
G92 E0
G1 X195.529 Y231.974 F6000.000
G1 E0.50000 F2400.00000
G1 F540
G1 X126.329 Y231.974 E7.97888
G1 X126.329 Y60.774 E26.48155
G1 X195.529 Y60.774 E33.96043
G1 X195.529 Y231.914 E52.45661
G1 X195.160 Y231.820 F6000.000
G1 X194.815 Y231.260 F6000.000
G1 F540
G1 X127.043 Y231.260 E59.78112
G1 X127.043 Y61.488 E78.12942
G1 X194.815 Y61.488 E85.45393
G1 X194.815 Y231.200 E103.79574
G1 X194.025 Y230.621 F6000.000
G1 F900
G1 X194.177 Y230.470 E103.81895
G1 X194.177 Y229.458 E103.92846
G1 X193.013 Y230.621 E104.10653
G1 X192.002 Y230.621 E104.21603
G1 X194.177 Y228.447 E104.54896
G1 X194.177 Y227.435 E104.65846
G1 X190.990 Y230.621 E105.14625
G1 X189.979 Y230.621 E105.25575
G1 X194.177 Y226.423 E105.89840
G1 X194.177 Y225.412 E106.00790
G1 X188.967 Y230.621 E106.80541
G1 X187.956 Y230.621 E106.91491
G1 X194.177 Y224.400 E107.86727
G1 X194.177 Y223.389 E107.97678
G1 X186.944 Y230.621 E109.08400
G1 X185.932 Y230.621 E109.19350
G1 X194.177 Y222.377 E110.45559
G1 X194.177 Y221.365 E110.56509
G1 X184.921 Y230.621 E111.98203
G1 X183.909 Y230.621 E112.09153
G1 X194.177 Y220.354 E113.66333
G1 X194.177 Y219.342 E113.77283
G1 X182.898 Y230.621 E115.49949
G1 X181.886 Y230.621 E115.60900
G1 X194.177 Y218.331 E117.49051
G1 X194.177 Y217.319 E117.60002
G1 X180.874 Y230.621 E119.63639
G1 X179.863 Y230.621 E119.74590
G1 X194.177 Y216.308 E121.93713
G1 X194.177 Y215.296 E122.04663
G1 X178.851 Y230.621 E124.39273
G1 X177.840 Y230.621 E124.50223
G1 X194.177 Y214.284 E127.00318
G1 X194.177 Y213.273 E127.11269
G1 X176.828 Y230.621 E129.76850
G1 X175.817 Y230.621 E129.87800
G1 X194.177 Y212.261 E132.68867
G1 X194.177 Y211.250 E132.79817
G1 X174.805 Y230.621 E135.76370
G1 X173.793 Y230.621 E135.87320
G1 X194.177 Y210.238 E138.99359
G1 X194.177 Y209.227 E139.10309
G1 X172.782 Y230.621 E142.37834
G1 X171.770 Y230.621 E142.48784
G1 X194.177 Y208.215 E145.91795
G1 X194.177 Y207.203 E146.02745
G1 X170.759 Y230.621 E149.61242
G1 X169.747 Y230.621 E149.72192
G1 X194.177 Y206.192 E153.46174
G1 X194.177 Y205.180 E153.57124
G1 X168.736 Y230.621 E157.46593
G1 X167.724 Y230.621 E157.57543
G1 X194.177 Y204.169 E161.62497
G1 X194.177 Y203.157 E161.73447
G1 X166.712 Y230.621 E165.93887
G1 X165.701 Y230.621 E166.04837
G1 X194.177 Y202.145 E170.40763
G1 X194.177 Y201.134 E170.51713
G1 X164.689 Y230.621 E175.03125
G1 X163.678 Y230.621 E175.14075
G1 X194.177 Y200.122 E179.80973
G1 X194.177 Y199.111 E179.91923
G1 X162.666 Y230.621 E184.74307
G1 X161.654 Y230.621 E184.85257
G1 X194.177 Y198.099 E189.83126
G1 X194.177 Y197.088 E189.94076
G1 X160.643 Y230.621 E195.07432
G1 X159.631 Y230.621 E195.18382
G1 X194.177 Y196.076 E200.47223
G1 X194.177 Y195.064 E200.58173
G1 X158.620 Y230.621 E206.02500
G1 X157.608 Y230.621 E206.13450
G1 X194.177 Y194.053 E211.73263
G1 X194.177 Y193.041 E211.84213
G1 X156.597 Y230.621 E217.59512
G1 X155.585 Y230.621 E217.70462
G1 X194.177 Y192.030 E223.61247
G1 X194.177 Y191.018 E223.72197
G1 X154.573 Y230.621 E229.78468
G1 X153.562 Y230.621 E229.89418
G1 X194.177 Y190.006 E236.11174
G1 X194.177 Y188.995 E236.22125
G1 X152.550 Y230.621 E242.59367
G1 X151.539 Y230.621 E242.70317
G1 X194.177 Y187.983 E249.23045
G1 X194.177 Y186.972 E249.33995
G1 X150.527 Y230.621 E256.02209
G1 X149.515 Y230.621 E256.13160
G1 X194.177 Y185.960 E262.96859
G1 X194.177 Y184.949 E263.07810
G1 X148.504 Y230.621 E270.06995
G1 X147.492 Y230.621 E270.17946
G1 X194.177 Y183.937 E277.32617
G1 X194.177 Y182.925 E277.43568
G1 X146.481 Y230.621 E284.73725
G1 X145.469 Y230.621 E284.84675
G1 X194.177 Y181.914 E292.30319
G1 X194.177 Y180.902 E292.41269
G1 X144.458 Y230.621 E300.02398
G1 X143.446 Y230.621 E300.13348
G1 X194.177 Y179.891 E307.89964
G1 X194.177 Y178.879 E308.00914
G1 X142.434 Y230.621 E315.93015
G1 X141.423 Y230.621 E316.03965
G1 X194.177 Y177.868 E324.11552
G1 X194.177 Y176.856 E324.22502
G1 X140.411 Y230.621 E332.45575
G1 X139.400 Y230.621 E332.56525
G1 X194.177 Y175.844 E340.95084
G1 X194.177 Y174.833 E341.06034
G1 X138.388 Y230.621 E349.60079
G1 X137.377 Y230.621 E349.71029
G1 X194.177 Y173.821 E358.40559
G1 X194.177 Y172.810 E358.51510
G1 X136.365 Y230.621 E367.36526
G1 X135.353 Y230.621 E367.47476
G1 X194.177 Y171.798 E376.47978
G1 X194.177 Y170.786 E376.58928
G1 X134.342 Y230.621 E385.74917
G1 X133.330 Y230.621 E385.85867
G1 X194.177 Y169.775 E395.17341
G1 X194.177 Y168.763 E395.28291
G1 X132.319 Y230.621 E404.75251
G1 X131.307 Y230.621 E404.86201
G1 X194.177 Y167.752 E414.48647
G1 X194.177 Y166.740 E414.59597
G1 X130.295 Y230.621 E424.37528
G1 X129.284 Y230.621 E424.48478
G1 X194.177 Y165.729 E434.41896
G1 X194.177 Y164.717 E434.52846
G1 X128.272 Y230.621 E444.61749
G1 X127.682 Y230.621 E444.68142
G1 X127.682 Y230.200 E444.72700
G1 X194.177 Y163.705 E454.90644
G1 X194.177 Y162.694 E455.01594
G1 X127.682 Y229.189 E465.19538
G1 X127.682 Y228.177 E465.30488
G1 X194.177 Y161.682 E475.48432
G1 X194.177 Y160.671 E475.59382
G1 X127.682 Y227.166 E485.77326
G1 X127.682 Y226.154 E485.88277
G1 X194.177 Y159.659 E496.06221
G1 X194.177 Y158.648 E496.17171
G1 X127.682 Y225.142 E506.35115
G1 X127.682 Y224.131 E506.46065
G1 X194.177 Y157.636 E516.64009
G1 X194.177 Y156.624 E516.74959
G1 X127.682 Y223.119 E526.92903
G1 X127.682 Y222.108 E527.03853
G1 X194.177 Y155.613 E537.21797
G1 X194.177 Y154.601 E537.32748
G1 X127.682 Y221.096 E547.50692
G1 X127.682 Y220.085 E547.61642
G1 X194.177 Y153.590 E557.79586
G1 X194.177 Y152.578 E557.90536
G1 X127.682 Y219.073 E568.08480
G1 X127.682 Y218.061 E568.19430
G1 X194.177 Y151.566 E578.37374
G1 X194.177 Y150.555 E578.48324
G1 X127.682 Y217.050 E588.66268
G1 X127.682 Y216.038 E588.77219
G1 X194.177 Y149.543 E598.95163
G1 X194.177 Y148.532 E599.06113
G1 X127.682 Y215.027 E609.24057
G1 X127.682 Y214.015 E609.35007
G1 X194.177 Y147.520 E619.52951
G1 X194.177 Y146.509 E619.63901
G1 X127.682 Y213.003 E629.81845
G1 X127.682 Y211.992 E629.92795
G1 X194.177 Y145.497 E640.10739
G1 X194.177 Y144.485 E640.21690
G1 X127.682 Y210.980 E650.39634
G1 X127.682 Y209.969 E650.50584
G1 X194.177 Y143.474 E660.68528
G1 X194.177 Y142.462 E660.79478
G1 X127.682 Y208.957 E670.97422
G1 X127.682 Y207.946 E671.08372
G1 X194.177 Y141.451 E681.26316
G1 X194.177 Y140.439 E681.37266
G1 X127.682 Y206.934 E691.55210
G1 X127.682 Y205.922 E691.66161
G1 X194.177 Y139.428 E701.84105
G1 X194.177 Y138.416 E701.95055
G1 X127.682 Y204.911 E712.12999
G1 X127.682 Y203.899 E712.23949
G1 X194.177 Y137.404 E722.41893
G1 X194.177 Y136.393 E722.52843
G1 X127.682 Y202.888 E732.70787
G1 X127.682 Y201.876 E732.81738
G1 X194.177 Y135.381 E742.99682
G1 X194.177 Y134.370 E743.10632
G1 X127.682 Y200.864 E753.28576
G1 X127.682 Y199.853 E753.39526
G1 X194.177 Y133.358 E763.57470
G1 X194.177 Y132.346 E763.68420
G1 X127.682 Y198.841 E773.86364
G1 X127.682 Y197.830 E773.97314
G1 X194.177 Y131.335 E784.15258
G1 X194.177 Y130.323 E784.26209
G1 X127.682 Y196.818 E794.44153
G1 X127.682 Y195.807 E794.55103
G1 X194.177 Y129.312 E804.73047
G1 X194.177 Y128.300 E804.83997
G1 X127.682 Y194.795 E815.01941
G1 X127.682 Y193.783 E815.12891
G1 X194.177 Y127.289 E825.30835
G1 X194.177 Y126.277 E825.41785
G1 X127.682 Y192.772 E835.59729
G1 X127.682 Y191.760 E835.70680
G1 X194.177 Y125.265 E845.88624
G1 X194.177 Y124.254 E845.99574
G1 X127.682 Y190.749 E856.17518
G1 X127.682 Y189.737 E856.28468
G1 X194.177 Y123.242 E866.46412
G1 X194.177 Y122.231 E866.57362
G1 X127.682 Y188.726 E876.75306
G1 X127.682 Y187.714 E876.86256
G1 X194.177 Y121.219 E887.04200
G1 X194.177 Y120.207 E887.15151
G1 X127.682 Y186.702 E897.33095
G1 X127.682 Y185.691 E897.44045
G1 X194.177 Y119.196 E907.61989
G1 X194.177 Y118.184 E907.72939
G1 X127.682 Y184.679 E917.90883
G1 X127.682 Y183.668 E918.01833
G1 X194.177 Y117.173 E928.19777
G1 X194.177 Y116.161 E928.30727
G1 X127.682 Y182.656 E938.48671
G1 X127.682 Y181.644 E938.59621
G1 X194.177 Y115.150 E948.77565
G1 X194.177 Y114.138 E948.88516
G1 X127.682 Y180.633 E959.06460
G1 X127.682 Y179.621 E959.17410
G1 X194.177 Y113.126 E969.35354
G1 X194.177 Y112.115 E969.46304
G1 X127.682 Y178.610 E979.64248
G1 X127.682 Y177.598 E979.75198
G1 X194.177 Y111.103 E989.93142
G1 X194.177 Y110.092 E990.04092
G1 X127.682 Y176.587 E1000.22037
G1 X127.682 Y175.575 E1000.32987
G1 X194.177 Y109.080 E1010.50931
G1 X194.177 Y108.069 E1010.61881
G1 X127.682 Y174.563 E1020.79825
G1 X127.682 Y173.552 E1020.90775
G1 X194.177 Y107.057 E1031.08719
G1 X194.177 Y106.045 E1031.19669
G1 X127.682 Y172.540 E1041.37613
G1 X127.682 Y171.529 E1041.48563
G1 X194.177 Y105.034 E1051.66508
G1 X194.177 Y104.022 E1051.77458
G1 X127.682 Y170.517 E1061.95402
G1 X127.682 Y169.506 E1062.06352
G1 X194.177 Y103.011 E1072.24296
G1 X194.177 Y101.999 E1072.35246
G1 X127.682 Y168.494 E1082.53190
G1 X127.682 Y167.482 E1082.64140
G1 X194.177 Y100.987 E1092.82084
G1 X194.177 Y99.976 E1092.93034
G1 X127.682 Y166.471 E1103.10979
G1 X127.682 Y165.459 E1103.21929
G1 X194.177 Y98.964 E1113.39873
G1 X194.177 Y97.953 E1113.50823
G1 X127.682 Y164.448 E1123.68767
G1 X127.682 Y163.436 E1123.79717
G1 X194.177 Y96.941 E1133.97661
G1 X194.177 Y95.930 E1134.08611
G1 X127.682 Y162.424 E1144.26555
G1 X127.682 Y161.413 E1144.37506
G1 X194.177 Y94.918 E1154.55450
G1 X194.177 Y93.906 E1154.66400
G1 X127.682 Y160.401 E1164.84344
G1 X127.682 Y159.390 E1164.95294
G1 X194.177 Y92.895 E1175.13238
G1 X194.177 Y91.883 E1175.24188
G1 X127.682 Y158.378 E1185.42132
G1 X127.682 Y157.367 E1185.53082
G1 X194.177 Y90.872 E1195.71026
G1 X194.177 Y89.860 E1195.81977
G1 X127.682 Y156.355 E1205.99921
G1 X127.682 Y155.343 E1206.10871
G1 X194.177 Y88.849 E1216.28815
G1 X194.177 Y87.837 E1216.39765
G1 X127.682 Y154.332 E1226.57709
G1 X127.682 Y153.320 E1226.68659
G1 X194.177 Y86.825 E1236.86603
G1 X194.177 Y85.814 E1236.97554
G1 X127.682 Y152.309 E1247.15498
G1 X127.682 Y151.297 E1247.26448
G1 X194.177 Y84.802 E1257.44392
G1 X194.177 Y83.791 E1257.55342
G1 X127.682 Y150.286 E1267.73286
G1 X127.682 Y149.274 E1267.84236
G1 X194.177 Y82.779 E1278.02180
G1 X194.177 Y81.767 E1278.13131
G1 X127.682 Y148.262 E1288.31075
G1 X127.682 Y147.251 E1288.42025
G1 X194.177 Y80.756 E1298.59969
G1 X194.177 Y79.744 E1298.70919
G1 X127.682 Y146.239 E1308.88863
G1 X127.682 Y145.228 E1308.99813
G1 X194.177 Y78.733 E1319.17757
G1 X194.177 Y77.721 E1319.28708
G1 X127.682 Y144.216 E1329.46652
G1 X127.682 Y143.204 E1329.57602
G1 X194.177 Y76.710 E1339.75546
G1 X194.177 Y75.698 E1339.86496
G1 X127.682 Y142.193 E1350.04440
G1 X127.682 Y141.181 E1350.15390
G1 X194.177 Y74.686 E1360.33334
G1 X194.177 Y73.675 E1360.44285
G1 X127.682 Y140.170 E1370.62229
G1 X127.682 Y139.158 E1370.73179
G1 X194.177 Y72.663 E1380.91123
G1 X194.177 Y71.652 E1381.02073
G1 X127.682 Y138.147 E1391.20017
G1 X127.682 Y137.135 E1391.30967
G1 X194.177 Y70.640 E1401.48911
G1 X194.177 Y69.629 E1401.59861
G1 X127.682 Y136.123 E1411.77806
G1 X127.682 Y135.112 E1411.88756
G1 X194.177 Y68.617 E1422.06700
G1 X194.177 Y67.605 E1422.17650
G1 X127.682 Y134.100 E1432.35594
G1 X127.682 Y133.089 E1432.46544
G1 X194.177 Y66.594 E1442.64488
G1 X194.177 Y65.582 E1442.75438
G1 X127.682 Y132.077 E1452.93383
G1 X127.682 Y131.065 E1453.04333
G1 X194.177 Y64.571 E1463.22277
G1 X194.177 Y63.559 E1463.33227
G1 X127.682 Y130.054 E1473.51171
G1 X127.682 Y129.042 E1473.62121
G1 X194.177 Y62.547 E1483.80065
G1 X194.177 Y62.126 E1483.84623
G1 X193.586 Y62.126 E1483.91015
G1 X127.682 Y128.031 E1493.99919
G1 X127.682 Y127.019 E1494.10869
G1 X192.575 Y62.126 E1504.04287
G1 X191.563 Y62.126 E1504.15237
